assets/img/icon-3.svg

<svg fill="none" height="70" viewBox="0 0 69 70" width="69" xmlns="http://www.w3.org/2000/svg"><g fill="#fff"><path d="m67.1946 30.5686h-1.401c-1.2531-11.5981-8.8203-21.3306-19.1848-25.67951h11.9059v1.216c0 .67624.5479 1.22437 1.2244 1.22437h4.8807c.6764 0 1.2243-.54813 1.2243-1.22437v-4.88072c0-.676208-.5479-1.22437-1.2243-1.22437h-4.8807c-.6765 0-1.2244.548123-1.2244 1.22437v1.21599h-20.4013v-1.21599c0-.676208-.5479-1.22437-1.2243-1.22437h-4.881c-.6763 0-1.2244.548123-1.2244 1.22437v1.21599h-20.4012v-1.21599c0-.676208-.54817-1.22437-1.22441-1.22437h-4.88061c-.67621 0-1.22433.548123-1.22433 1.22437v4.88072c0 .67624.54812 1.22437 1.22433 1.22437h4.88057c.6762 0 1.22435-.54813 1.22435-1.22437v-1.216h11.9064c-10.3648 4.34891-17.93189 14.08141-19.1849 25.67951h-1.40102c-.67624 0-1.224364.5481-1.224364 1.2244v4.8807c0 .6762.548084 1.2243 1.224364 1.2243h4.88104c.67625 0 1.22437-.5481 1.22437-1.2243v-4.8807c0-.6762-.54808-1.2244-1.22437-1.2244h-1.01529c1.55233-13.2304 12.01937-23.77411 25.21507-25.4409v.97739c0 .67624.5481 1.22437 1.2244 1.22437h4.881c.6764 0 1.2243-.54813 1.2243-1.22437v-.97747c13.1958 1.66652 23.6628 12.21048 25.2154 25.44108h-1.015c-.6764 0-1.2243.5481-1.2243 1.2243v4.8807c0 .6762.5479 1.2243 1.2243 1.2243h4.8808c.6764 0 1.2244-.5481 1.2244-1.2243v-4.8807c0-.6762-.548-1.2244-1.2244-1.2244zm-3.7992-25.68787h-2.432v-1.216-1.216h2.432zm-57.89352-2.432h2.43181v2.432h-2.43181zm-.14228 31.66637v1.3342h-2.43235v-1.332-.798c.00202-.1008.00463-.2014.00751-.302h2.42484zm29.0894-31.66637c.4071 0 .8122.01035 1.2156.02572v2.40628h-2.4322v-2.40631c.4038-.01534.809-.02569 1.2166-.02569zm31.5212 30.88397v.7835 1.3331h-2.4319v-1.332-1.1h2.424c.0035.105.0059.2102.0079.3154z"/><path d="m35.5697 9.71212c-.1947-.44616-.6354-.73458-1.1221-.73458-.4868 0-.9274.28842-1.1221.73458l-15.9513 36.54588c-.1277.2928-.1361.6237-.0234.9224l.019.0503c.1298.3439.4074.6113.7558.7283 3.8154 1.2804 6.3789 4.8449 6.3789 8.8696 0 1.6767-.4504 3.323-1.3024 4.7609-.0265.0446-.049.0907-.0693.1378-.1385.1983-.2204.4392-.2204.6995v6.2002c0 .6727.5428 1.2196 1.2155 1.2245l20.6218.1485h.0092c.672 0 1.2193-.5425 1.224-1.2154.0048-.6763-.5393-1.2285-1.2154-1.2333l-19.4064-.1397v-3.0767h18.9445c.5114 0 .9692-.3179 1.1475-.797l.3341-.8974c.1291-.3468.0946-.7332-.0943-1.0516-.8517-1.4374-1.3019-3.0835-1.3019-4.7603 0-4.0248 2.5632-7.5893 6.3787-8.8697.3495-.1174.6276-.3862.7571-.7317l.0187-.0502c.1114-.2979.1025-.6274-.0246-.919zm-1.1221 34.07908c1.3548 0 2.4572 1.1021 2.4572 2.4566 0 1.3547-1.1024 2.4568-2.4572 2.4568-1.3547 0-2.4568-1.1021-2.4568-2.4568 0-1.3545 1.1021-2.4566 2.4568-2.4566zm7.4946 13.0375c0 1.7547.3913 3.4833 1.1381 5.0575h-17.2651c.7471-1.5745 1.1381-3.3029 1.1381-5.0575 0-4.6425-2.703-8.7996-6.845-10.7131l13.1149-30.0478v25.4293c-2.1144.5452-3.6811 2.4686-3.6811 4.7508 0 2.7049 2.2006 4.9054 4.9055 4.9054 2.7052 0 4.906-2.2005 4.906-4.9054 0-2.2824-1.5671-4.2056-3.6817-4.7508v-25.4293l13.1152 30.0478c-4.1419 1.9138-6.8449 6.0706-6.8449 10.7131z"/></g></svg>

<svg width="69" height="70" viewBox="0 0 69 70" fill="none" xmlns="http://www.w3.org/2000/svg">
<path d="M67.1946 30.5686H65.7936C64.5405 18.9705 56.9733 9.238 46.6088 4.88909H58.5147V6.10509C58.5147 6.78133 59.0626 7.32946 59.7391 7.32946H64.6198C65.2962 7.32946 65.8441 6.78133 65.8441 6.10509V1.22437C65.8441 0.548162 65.2962 0 64.6198 0H59.7391C59.0626 0 58.5147 0.548123 58.5147 1.22437V2.44036H38.1134V1.22437C38.1134 0.548162 37.5655 0 36.8891 0H32.0081C31.3318 0 30.7837 0.548123 30.7837 1.22437V2.44036H10.3825V1.22437C10.3825 0.548162 9.83433 0 9.15809 0H4.27748C3.60127 0 3.05315 0.548123 3.05315 1.22437V6.10509C3.05315 6.78133 3.60127 7.32946 4.27748 7.32946H9.15805C9.83425 7.32946 10.3824 6.78133 10.3824 6.10509V4.88909H22.2888C11.924 9.238 4.35691 18.9705 3.1039 30.5686H1.70288C1.02664 30.5686 0.478516 31.1167 0.478516 31.793V36.6737C0.478516 37.3499 1.0266 37.898 1.70288 37.898H6.58392C7.26017 37.898 7.80829 37.3499 7.80829 36.6737V31.793C7.80829 31.1168 7.26021 30.5686 6.58392 30.5686H5.56863C7.12096 17.3382 17.588 6.79449 30.7837 5.1277V6.10509C30.7837 6.78133 31.3318 7.32946 32.0081 7.32946H36.8891C37.5655 7.32946 38.1134 6.78133 38.1134 6.10509V5.12762C51.3092 6.79414 61.7762 17.3381 63.3288 30.5687H62.3138C61.6374 30.5687 61.0895 31.1168 61.0895 31.793V36.6737C61.0895 37.3499 61.6374 37.898 62.3138 37.898H67.1946C67.871 37.898 68.419 37.3499 68.419 36.6737V31.793C68.419 31.1168 67.871 30.5686 67.1946 30.5686ZM63.3954 4.88073H60.9634V3.66473V2.44873H63.3954V4.88073ZM5.50188 2.44873H7.93369V4.88073H5.50188V2.44873ZM5.3596 34.1151V35.4493H2.92725V34.1173V33.3193C2.92927 33.2185 2.93188 33.1179 2.93476 33.0173H5.3596V34.1151V34.1151ZM34.449 2.44873C34.8561 2.44873 35.2612 2.45908 35.6646 2.47445V4.88073H33.2324V2.47442C33.6362 2.45908 34.0414 2.44873 34.449 2.44873ZM65.9702 33.3327V34.1162V35.4493H63.5383V34.1173V33.0173H65.9623C65.9658 33.1223 65.9682 33.2275 65.9702 33.3327Z" fill="white"/>
<path d="M35.5697 9.71212C35.375 9.26596 34.9343 8.97754 34.4476 8.97754C33.9608 8.97754 33.5202 9.26596 33.3255 9.71212L17.3742 46.258C17.2465 46.5508 17.2381 46.8817 17.3508 47.1804L17.3698 47.2307C17.4996 47.5746 17.7772 47.842 18.1256 47.959C21.941 49.2394 24.5045 52.8039 24.5045 56.8286C24.5045 58.5053 24.0541 60.1516 23.2021 61.5895C23.1756 61.6341 23.1531 61.6802 23.1328 61.7273C22.9943 61.9256 22.9124 62.1665 22.9124 62.4268V68.627C22.9124 69.2997 23.4552 69.8466 24.1279 69.8515L44.7497 70C44.7528 70 44.7559 70 44.7589 70C45.4309 70 45.9782 69.4575 45.9829 68.7846C45.9877 68.1083 45.4436 67.5561 44.7675 67.5513L25.3611 67.4116V64.3349H44.3056C44.817 64.3349 45.2748 64.017 45.4531 63.5379L45.7872 62.6405C45.9163 62.2937 45.8818 61.9073 45.6929 61.5889C44.8412 60.1515 44.391 58.5054 44.391 56.8286C44.391 52.8038 46.9542 49.2393 50.7697 47.9589C51.1192 47.8415 51.3973 47.5727 51.5268 47.2272L51.5455 47.177C51.6569 46.8791 51.648 46.5496 51.5209 46.258L35.5697 9.71212ZM34.4476 43.7912C35.8024 43.7912 36.9048 44.8933 36.9048 46.2478C36.9048 47.6025 35.8024 48.7046 34.4476 48.7046C33.0929 48.7046 31.9908 47.6025 31.9908 46.2478C31.9908 44.8933 33.0929 43.7912 34.4476 43.7912ZM41.9422 56.8287C41.9422 58.5834 42.3335 60.312 43.0803 61.8862H25.8152C26.5623 60.3117 26.9533 58.5833 26.9533 56.8287C26.9533 52.1862 24.2503 48.0291 20.1083 46.1156L33.2232 16.0678V41.4971C31.1088 42.0423 29.5421 43.9657 29.5421 46.2479C29.5421 48.9528 31.7427 51.1533 34.4476 51.1533C37.1528 51.1533 39.3536 48.9528 39.3536 46.2479C39.3536 43.9655 37.7865 42.0423 35.6719 41.4971V16.0678L48.7871 46.1156C44.6452 48.0294 41.9422 52.1862 41.9422 56.8287Z" fill="white"/>
</svg>
